X:1
T:O gloriosa
T:O gloriosa
T:uit Orgelalbum 1
T:Jef Tinel (1885-1972)
T:Ad van de Wege
C:Jef Tinel (1885-1972)
Z:Ad van de Wege
%%score { ( 1 3 ) | ( 2 4 ) }
L:1/8
M:4/4
K:C
V:1 treble nm="Orgel" snm="Org."
V:3 treble 
V:2 bass 
V:4 bass 
V:1
 z2 | z8 | z4 z2 E2 | E2 D2 C2 DE | G2 ^F2 E2 (D2 | D2) B,2 C2 [B,E]2 | [CA]2 [^CG]2 [DF]2 [EA]2 | %7
 [Fd]2 [^Fc]2 [GB]2 [Be]2 |[M:2/4] a2 g2 |[M:4/4] f8 | ^G8 | (d8 | d4) c2 B2 | (A8 | A2) A2 G2 F2 | %15
 F4 E2 D2 |[M:2/4] D2 (C2 |[M:4/4] [A,C]2) [B,D]2 [CE]2 [B,D]2 | [A,C]2 [B,D]2 [CE]2 [DF][EG] | %19
 [FA]2 [EG]2 [DF]2 [EG][FA] | [GB]2 [FA]2 [GB]2 [Ac]2 | [Bd]2 [GB]2 [Ac]2 [Bd]2 | %22
 [ce]2 [Bd]2 [Ac]2 [Bd]2 | [ce]2 [Bd]2 [Ac]2 [GB]2 | [FA]2 [GB][Ac] [GB]2 [FA]2 | %25
 [EG]2 [FA][GB] [FA]2 [EG]2 | [DF]2 [EG][FA] [EG]2 [DF]2 | [CE]2 [B,D]2 [A,C]2 [B,D]2 | %28
 [CE]2 [B,D]2 [A,C]2 [B,D]2 | E8 | (E8 |"^Rit. --------------" (E8) | (E4) E) z z2 |] %33
V:2
!ped! A,2!ped-up! | A,2 G,2 E,2 D,2 | G,2 A,C B,2 B,A, | B,4 A,4 | E,2 ^F,2 G,2 ^G,2 | A,6 =G,2 | %6
 F,2 E,2 [D,E,]2 C,2 | B,,2 A,,2 G,,2 [^G,,D]2 |[M:2/4] C2 (E2 |[M:4/4] E2) E2 D2 C2 | %10
 C2 D2 C2 B,2 | F,2 F,2 E,2 D,2 | E,8 | C8 | D2 F,2 G,2 A,2 | B,2 A,2 G,2 F,2 |[M:2/4] E,4 | %17
[M:4/4] [D,F,]4 [F,A,]4 | [D,F,]4 [G,A,]4 | [B,D]4 [G,B,]4 | %20
[K:treble]"_zonder  ped." [DF]2 [CE]2 [DF]2 [EG]2 | [FA]2 [DF]2 [EG]2 [FA]2 | A4 G2 F2 | %23
 [A,C]2 [B,D]2 [CE]2 [DF]2 | [CE]2[K:bass] [A,C]2 [B,D]2 [CE]2 | [B,D]2 [G,B,]2 [A,C]2 [B,D]2 | %26
 [A,C]2 [F,A,]2 [G,B,]2 [A,C]2 | [G,A,]4 [E,G,]2 [G,A,]2 | [F,A,]4 [D,F,]2 [F,A,]2 | %29
 A,2 A,2 B,2 (A,2 |!ped! A,2) A,2 ^F,2 A,2!ped-up! | A,2 A,2 ^G,2 ^F,2 | %32
 ^G,4"_tijdsduur 3'15''" G, z z2 |] %33
V:3
 x2 | x8 | x8 | x8 | x8 | x8 | x8 | x8 |[M:2/4] (A4 |[M:4/4] A2) c2 B2 A2 | f2 f2 e2 d2 | %11
 A2 A2 =G2 F2 | G6 F2 | E2 G2 F2 E2 | (D8 | D2) C2 B,2 A,2 |[M:2/4] G,4 |[M:4/4] x8 | x8 | x8 | %20
 x8 | x8 | x8 | x8 | x8 | x8 | x8 | x8 | x8 | C2 C2 D2 C2 | (B,8 | (B,8) | (B,4) B,) x3 |] %33
V:4
 x2 | x8 | x8 | x8 | x8 | x8 | x8 | x8 |[M:2/4] A,,4 |[M:4/4] D,8 | E,8 | (B,8 | B,2) F2 E2 D2 | %13
 F,2 E,2 D,2 C,2 | B,,8 | G,,8 |[M:2/4] A,,4 |[M:4/4] x8 | x8 | x8 |[K:treble] x8 | x8 | %22
 G2 F2 E2 D2 | x8 | x2[K:bass] x6 | x8 | x8 | x8 | x8 | E,8 | E,8 | (E,,8 | (E,,4) E,,) x3 |] %33

